X:1
T:[ID 6-18]
T:[ID 6-18]
T:Bezeichnung standardisiert: J\"ager Sesken; Jager Sesken In dieser Quelle auch als: J\"ager 6ken
T:Urheber unbekannt Datum in der hier transkribierten schriftlichen Quelle: 1792
C:Urheber unbekannt
C:Datum in der hier transkribierten schriftlichen Quelle: 1792
L:1/8
M:2/4
K:D
V:1 treble 
V:1
 A | ddde | f/e/f/g/ fg | aa/b/ ag | f2 eA | ddde | f/e/f/g/ fg | af b/a/g/f/ | e3 :: f/g/ | aaaa | %11
 a2 e2 | f/g/a/b/ ag/f/ | e3 A | ddde | ffeA | ddde | f/e/f/g/ ee | ffgg | a/g/a/b/ ag | %20
 f/a/f/d/ e/g/e/c/ | d3 :| %22

